X:1
T:Invention 5
T:Johann Sebastian Bach
T:BWV 0776
%%score { 1 | 2 }
L:1/8
Q:1/4=84
M:4/4
K:Eb
V:1 treble nm="Harp"
V:2 bass 
V:1
 z E/D/ E/4D/4E/F G/4F/4G3/2 A2 | z F/E/ F/4E/4F/G A/4G/4A3/2 B2 | Gc c/4B/4c/4B/4A G/A/B/A/ GF | %3
 EGBe- e/c/d/e/ fe | d/e/e/4d/4c/ d/e/c/d/ B/b/=a/b/ g/a/f/g/ | %5
 e/g/f/g/ e/f/d/e/ c/b/=a/g/ a/b/g/a/ | B/b/=a/g/ a/b/g/a/ f/b/_a/g/ f/g/e/f/ | %7
 d/g/f/e/ d/e/c/d/ F/e/d/c/ d/e/c/d/ | eB/A/ B/4A/4B/c _d/4c/4d3/2 e2 | %9
 z c/B/ c/4B/4c/d e/4d/4e3/2 f2 | z d/c/ d/4c/4d/e f/4e/4f3/2 g2 | %11
 e/f/f/4e/4d/ e/f/d/e/ c/c'/b/c'/ a/b/g/a/ | f/a/g/a/ f/g/e/f/ d/c'/=b/=a/ b/c'/a/b/ | %13
 c/c'/b/a/ b/c'/a/b/ g/c'/b/a/ g/a/f/g/ | =e/a/g/f/ e/f/d/e/ G/f/e/d/ e/f/d/e/ | %15
 fF/=E/ FG A/4G/4A3/2 B2 | z G/F/ GA B/4A/4B3/2 c2 | A_dd/4c/4d/4c/4B =A/B/c/B/ AG | %18
 F=Ace- e/c/_d/e/ fe | _d/e/e/4d/4c/ d/e/c/d/ B/a/g/f/ g/a/f/g/ | %20
 a/_d/c/B/ c/d/B/c/ A/g/f/=e/ f/g/e/f/ | g/c/B/A/ B/c/A/B/ G/f/=e/d/ e/f/d/e/ | %22
 fA/G/ AB c/4B/4c3/2 _d2 | z B/A/ B/4A/4B/c _d/4c/4d3/2 e2 | c/a/g/a/ f/g/e/f/ _d/b/a/b/ c/d/B/c/ | %25
 A/c/B/c/ A/B/G/A/ F/e/d/c/ d/e/c/d/ | eE/D/ EF G/4F/4G3/2 A2 | z F/E/ F/4E/4F/G A/4G/4A3/2 B2 | %28
 Gcc/4B/4c/4B/4A G/A/B/A/ GF | Eff/4e/4f/4e/4_d c/d/e/d/ cB | Acea- a/f/g/a/ ba | %31
{a} g-g/4f/4e/4f/4[Q:1/4=63] g/4f/4e/4f/4g/4f/4e/4f/4[Q:1/4=42] e4[Q:1/4=83][Q:1/4=82][Q:1/4=81][Q:1/4=80][Q:1/4=79][Q:1/4=78][Q:1/4=77][Q:1/4=76][Q:1/4=75][Q:1/4=74][Q:1/4=73][Q:1/4=72][Q:1/4=71][Q:1/4=70][Q:1/4=69][Q:1/4=68][Q:1/4=67][Q:1/4=66][Q:1/4=65][Q:1/4=64][Q:1/4=62][Q:1/4=61][Q:1/4=60][Q:1/4=59][Q:1/4=58][Q:1/4=57][Q:1/4=56][Q:1/4=55][Q:1/4=54][Q:1/4=53][Q:1/4=52][Q:1/4=51][Q:1/4=50][Q:1/4=49][Q:1/4=48][Q:1/4=47][Q:1/4=46][Q:1/4=45][Q:1/4=44][Q:1/4=43] |] %32
V:2
 E,/4D,/4E,3/2 E,,2 z/ E/D/E/ C/D/B,/C/ | A,/C/B,/C/ A,/B,/G,/A,/ F,/E/D/C/ D/E/C/D/ | %2
 E,/E/D/C/ D/E/C/D/ B,/E/D/C/ B,/C/A,/B,/ | G,/C/B,/A,/ G,/A,/F,/G,/ C,/B,/=A,/G,/ A,/B,/G,/A,/ | %4
 B,B,,/=A,,/ B,,C, D,/4C,/4D,3/2 E,2 | z C,/B,,/ C,D, E,/4D,/4E,3/2 F,2 | %6
 D,G,G,/4F,/4G,/4F,/4E, D,/E,/F,/E,/ D,C, | B,,D,F,A,- A,/F,/G,/A,/ B,A, | %8
 G,/A,/G,/F,/ G,/A,/F,/G,/ E,/E/_D/E/ C/D/B,/C/ | A,/B,/A,/G,/ A,/B,/G,/A,/ F,/F/E/F/ D/E/C/D/ | %10
 B,/C/B,/=A,/ B,/C/_A,/B,/ G,/A,/F,/G,/ E,/F,/D,/E,/ | C,C,/=B,,/ C,D, E,/4D,/4E,3/2 F,2 | %12
 z D,/C,/ D,E, F,/4E,/4F,3/2 G,2 | E,A, A,/4G,/4A,/4G,/4F, =E,/F,/G,/F,/ _E,D, | %14
 C,=E,G,B,- B,/G,/A,/B,/ CB, | A,/B,/A,/G,/ A,/B,/G,/A,/ F,/F/E/F/ _D/E/C/D/ | %16
 B,/_D/C/D/ B,/C/A,/B,/ G,/F/=E/=D/ E/F/D/E/ | F,/F/E/_D/ E/F/D/E/ C/F/E/D/ C/D/B,/C/ | %18
 =A,/_D/C/B,/ A,/B,/G,/A,/ C,/B,/A,/G,/ A,/B,/G,/A,/ | B,B,,/=A,,/ B,,C, _D,/4C,/4D,3/2 E,2 | %20
 z A,,/G,,/ A,,B,, C,/4B,,/4C,3/2 _D,2 | z G,,/F,,/ G,,A,, B,,/4A,,/4B,,3/2 C,2 | %22
 F,,/C/B,/C/ A,/B,/G,/A,/ F,/A,/G,/A,/ F,/G,/E,/F,/ | %23
 _D,/F,/E,/F,/ D,/E,/C,/D,/ B,,/A,/G,/F,/ G,/A,/F,/G,/ | A,E,/D,/ E,F, G,/4F,/4G,3/2 A,2 | %25
 z F,/E,/ F,G, A,/4G,/4A,3/2 B,2 | G,/A,/G,/F,/ G,/A,/F,/G,/ E,/E/D/E/ C/D/B,/C/ | %27
 A,/C/B,/C/ A,/B,/G,/A,/ F,/E/D/C/ D/E/C/D/ | E,/E/D/C/ D/E/C/D/ B,/E/D/C/ B,/C/A,/B,/ | %29
 G,/C/B,/A,/ G,/A,/F,/G,/ E,/A,/G,/F,/ E,/F,/_D,/E,/ | %30
 C,/F,/E,/_D,/ C,/D,/B,,/C,/ F,,/E,/=D,/C,/ D,/E,/C,/D,/ | E,G,, A,,B,, E,,4 |] %32

